X: 1
T: The Elven Cloak
R: jig
M: 6/8
L: 1/8
K: Ador
|:EAA A2B|cBA GAB|EAA A2B|cBA B2A|
EAA A2B|cBA GAB|cBA GED|EAA A2B:|
|:cAA eAA|gAA eAA|cAA eAA|ged e3|
cAA dAA|eAA dAA|cBA GED|EAA A2B:|
|:EAA BAA|GAA BAA|EAA BAA|cBA GED|
EAA BAA|GAA BAA|cBA GED|EAA A2B:|
|:cAA eAA|gAe AdA|cBA GAB|cBA GED|
cAA eAA|gAe AdA|cBA GED|EAA A3:|

